!!!COM: Bach, Johann Sebastian
!!!CDT: 1685///-1750///
!!!CNT@EN: German
!!!OTL: Bour&eacute;e II from Cello Suite No. 4 in E-flat Major, BWV 1010
!!!OPR: Cello Suite No. 4 in E-flat Major, BWV 1010
!!!OMD: Bour&eacute;e II
!!!OMV: 6
!!!ODT: 1723///
!!!SCT: BWV 1010
!!!SCA: Thematisch-systematisches Verzeichnis der musikalischen Werke Johann Sebastian Bach: Bach-Werke-Verzeichnis (Schmieder)
**kern
*Icello
*>[A,A,B,B]
*>norep[A,B]
*>A
*clefF4
*k[b-e-a-]
*met(C)
*M4/4
4GG/ 4E-/
=1
4AA-/ 4E-/
4F\
4BB-\ 4F\
4D\
=2
*^
8E-/L	8C\
8F/J	8r
4G/	2.r
4GG/ (4G/	.
4E-\)	.
*v	*v
=3
4AA-/
4F\
4BB-/
4D\
=4
4E-\
4BB-/
4EE-/
=:|!|:
*>B
*^
4B-/	4E-\
=5	=5
4B-/	4A-\
4c/	4r
4c/	4G\
4B-/	4r
*v	*v
=6
8A-\L
8G\J
4A-\
(4F\
4A-\)
=7
*^
4B-/	4D\
4A-/	4r
4A-/	4E-\
4G/	4r
*v	*v
=8
8F\L
8E-\
8D\
8C\J
8BB-/L
8AA-/J
4GG/ 4E-/
=9
4AA-/ 4E-/
4F\
4BB-\ 4F\
4D\
=10
*^
8E-/L	8C\
8F/J	8r
4G/	2.r
4GG/ (4G/	.
4E-\)	.
*v	*v
=11
4AA-/
4F\
4BB-/
4D\
=12
*^
2.E-/	4EE-\ 4BB-\
.	2r
*v	*v
==:|!
*-
!!!ENC: Craig Stuart Sapp
!!!END: 2004/12/29/
